**kern	**kern	**dynam
*part1	*part1	*part1
*staff2	*staff1	*
*I"Piano	*	*
*clefF4	*clefG2	*
*k[b-]	*k[b-]	*
=1	=1	=1
*	*^	*
8AL	8fL	8c]	>
8G	8en	4B-	.
8F	8d	.	.
8GJ	8eJ)	8B-	] p
=	=	=	=
8FL	4f^^	8AL 8c	pp
16AL	.	16cL	.
16B-JJ	.	16dJJ	.
8cL	4f^^	8e-XL	.
8AJ	.	8cJ	.
=	=	=	=
*^	*	*	*
8B-L	2F	4f	8dL	p
16AL	.	.	16cL	.
16B-JJ	.	.	16dJJ	.
8cL	.	4f	8e-XL	.
8AJ	.	.	8cJ	.
=	=	=	=	=
8B-L	2F	4f	8dL	pp <
16AL	.	.	16cL	.
16B-JJ	.	.	16dJJ	.
*	*	*v	*v	*
8dL	.	8fL 8b-	.
8fJ	.	8b-J 8dd	.
=	=	=	=
*	*	*^	*
8enL	2F	8b- 8cc	8gL	[ >
8c	.	4b- 4cc	8e	.
8d	.	.	8f	.
8eJ	.	8b- 8cc	8gJ	.
*	*	*v	*v	*
=	=	=	=
4f>	4F	4a 4cc	]
4ryy	4F	4A< 4c<	.
*v	*v	*	*
=	=	=
2FF; 2C	2F;< 2A< 2c<	.
==	==	==
*-	*-	*-
!!!system-decoration: {(s1,s2)}
!!!RDF**kern: > = above
!!!RDF**kern: < = below
